!!!COM:	Bartok
!!!OTL:	337_Bar-32/16-17/4-1[14]1-5
**kern	**kern	**kern	**kern	**kern	**kern	**kern	**kern	**dynam	**kern	**kern	**kern	**kern
*part11	*part10	*part9	*part8	*part7	*part7	*part6	*part5	*part5	*part4	*part3	*part2	*part1
*staff12	*staff11	*staff10	*staff9	*staff8	*staff7	*staff6	*staff5	*S	*staff4	*staff3	*staff2	*staff1
*I"Violoncello	*I"Viola	*I"Violin II	*I"Violin I	*I"Piano	*	*I"Horn in F	*I"Bassoon	*	*I"Clarinet in Bb	*I"Oboe	*I"Flute	*I"Piccolo
*I'Vc.	*I'Vla.	*I'Vln. II	*I'Vln. I	*I'Pno.	*	*I'Hn.	*I'Bsn.	*	*I'Cl.	*I'Ob.	*I'Fl.	*I'Picc.
*clefF4	*clefC3	*clefG2	*clefG2	*clefF4	*clefG2	*clefG2	*clefC4	*	*clefG2	*clefG2	*clefG2	*clefG2
*k[]	*k[]	*k[]	*k[]	*k[]	*k[]	*	*k[]	*	*k[]	*k[]	*k[]	*k[]
*	*	*	*	*	*	*	*	*	*	*	*	*
*M3/4	*M3/4	*M3/4	*M3/4	*M3/4	*M3/4	*M3/4	*M3/4	*	*M3/4	*M3/4	*M3/4	*M3/4
=1	=1	=1	=1	=1	=1	=1	=1	=1	=1	=1	=1	=1
8F#X'L	8A#X'L	8e'L	8g'L	2.r	16d^^LL 16dd	2.r	4r	.	8r	4r	4r	4r
.	.	.	.	.	16dd 16ddd	.	.	.	.	.	.	.
8G#X'^J	8B'^J	8e'J	8g'J	.	16d 16dd	.	.	.	8G#X' 8B	.	.	.
.	.	.	.	.	16ddJJ 16ddd	.	.	.	.	.	.	.
8F#'L	8A#'L	8e'L	8g'L	.	16dLL 16dd	.	4r	.	8r	(16fLL	(16ffLL	(16ffLL
.	.	.	.	.	16dd 16ddd	.	.	.	.	16eJ	16eeJ	16eeJ
8F#'J	8A#'J	8f'^J	8a'^J	.	16d 16dd	.	.	.	8f' 8a	8dJ)	8ddJ)	8ddJ)
.	.	.	.	.	16ddJJ 16ddd	.	.	.	.	.	.	.
8F#'L	8A#'L	8e'L	8g'L	.	16dLL 16dd	.	(16fLL	.	8r	(16ffLL	(16fffLL	(16fffLL
.	.	.	.	.	16dd 16ddd	.	16eJ	.	.	16eeJ	16eeeJ	16eeeJ
8G#'^J	8B'^J	8e'J	8g'J	.	16d 16dd	.	8dJ)	.	8G#' 8B	8ddJ)	8dddJ)	8dddJ)
.	.	.	.	.	16ddJJ 16ddd	.	.	.	.	.	.	.
=2	=2	=2	=2	=2	=2	=2	=2	=2	=2	=2	=2	=2
8F#X'L	8A#X'L	8e'L	8g'L	2.r	16fLL 16ff 16fff	2.r	2.r	.	8r	2.r	2.r	2.r
.	.	.	.	.	16e 16eee	.	.	.	.	.	.	.
8F#'J	8A#'J	8f'^J	8a'^J	.	16d 16ddd	.	.	.	8f' 8a	.	.	.
.	.	.	.	.	16c#XJJ 16ccc#X	.	.	.	.	.	.	.
8F#'L	8A#'L	8e'L	8g'L	.	16BLL 16bb	.	.	.	8r	.	.	.
.	.	.	.	.	16e 16ee 16eee	.	.	.	.	.	.	.
8G#X'^J	8B'^J	8e'J	8g'J	.	16d 16ddd	.	.	.	8G#X' 8B	.	.	.
.	.	.	.	.	16c#JJ 16ccc#	.	.	.	.	.	.	.
8F#'L	8A#'L	8e'L	8g'L	.	16BLL 16bb	.	.	.	4r	.	.	.
.	.	.	.	.	16b	.	.	.	.	.	.	.
8F#'J	8A#'J	8e'J	8g'J	.	16dd 16ddd	.	.	.	.	.	.	.
.	.	.	.	.	16ccJJ 16ccc#	.	.	.	.	.	.	.
=3	=3	=3	=3	=3	=3	=3	=3	=3	=3	=3	=3	=3
*M5/8	*M5/8	*M5/8	*M5/8	*M5/8	*M5/8	*M5/8	*M5/8	*	*M5/8	*M5/8	*M5/8	*M5/8
8F#X'L	8A#X'L	8e'L	8g'L	3...r	4b 4bb	3...r	4r	.	8r	4r	4r	4r
8F#'	8A#'	8f'^	8a'^	.	.	.	.	.	8f' 8a	.	.	.
8F#'J	8A#'J	8e'J	8g'J	.	8r	.	(16dLL	.	8r	(16ddLL	8r	8r
.	.	.	.	.	.	.	16c#XJJ	.	.	16cc#XJJ	.	.
8F#'L	8A#'L	8e'L	8g'L	.	4r	.	8B)	.	8A#X' 8c#X	8bL)	8r	8r
8G#X'^J	8B'^J	8e'J	8g'J	.	.	.	8r	.	8r	(16ddL 16ddd	(16dddLL	(16ddddLL
.	.	.	.	.	.	.	.	.	.	16cc#JJ 16ccc#X	16ccc#XJJ	16cccc#XJJ
=4	=4	=4	=4	=4	=4	=4	=4	=4	=4	=4	=4	=4
*M2/4	*M2/4	*M2/4	*M2/4	*M2/4	*M2/4	*M2/4	*M2/4	*	*M2/4	*M2/4	*M2/4	*M2/4
8F#X'L	8A#X'L	8e'L	8g'L	2r	2r	2r	8r	.	8r	8b) 8bb	8bb)	8bbb)
8F#'J	8A#'J	8f'^J	8a'^J	.	.	.	8f' 8a	.	8f' 8a	8r	8r	8r
8F#'L	8A#'L	8d'L	8f'L	.	.	.	8r	.	8r	4r	4r	4r
*	*	*	*	*	*	*	*clefF4	*	*	*	*	*
8E'^J	8G#X'^J	8d'J	8f'J	.	.	.	8E' 8G#X	.	8E' 8G#X	.	.	.
=5	=5	=5	=5	=5	=5	=5	=5	=5	=5	=5	=5	=5
!!pagebreak:original
*M3/4	*M3/4	*M3/4	*M3/4	*M3/4	*M3/4	*M3/4	*M3/4	*	*M3/4	*M3/4	*M3/4	*M3/4
8E'L	8G#X'L	8d'L	8f'L	2.r	16fLL 16ff 16fff	2.r	2.r	.	8r	2.r	2.r	2.r
.	.	.	.	.	16e-X 16eee-X	.	.	.	.	.	.	.
8F#X'^J	8A#X'^J	8d'J	8f'J	.	16d 16ddd	.	.	.	8G-X' 8B-X	.	.	.
.	.	.	.	.	16cJJ 16ccc	.	.	.	.	.	.	.
8E'L	8G#'L	8d'L	8f'L	.	16BLL 16bb	.	.	.	8r	.	.	.
.	.	.	.	.	16A 16aa	.	.	.	.	.	.	.
8E'J	8G#'J	8e'^J	8g'^J	.	16e- 16ee-X 16eee-	.	.	.	8e-X' 8gn	.	.	.
.	.	.	.	.	16dJJ 16ddd	.	.	.	.	.	.	.
8E'L	8G#'L	8d'L	8f'L	.	16cLL 16ccc	.	.	.	4r	.	.	.
.	.	.	.	.	16B 16bb	.	.	.	.	.	.	.
8E'J	8G#'J	8d'J	8f'J	.	16A 16aa	.	.	.	.	.	.	.
.	.	.	.	.	16ddJJ 16ddd	.	.	.	.	.	.	.
=6	=6	=6	=6	=6	=6	=6	=6	=6	=6	=6	=6	=6
*M5/8	*M5/8	*M5/8	*M5/8	*M5/8	*M5/8	*M5/8	*M5/8	*	*M5/8	*M5/8	*M5/8	*M5/8
8F#X'^L	8A#X'^L	8d'L	8f'L	3...r	16cLL 16ccc	3...r	4r	.	8G-X' 8B-X	4r	4r	4r
.	.	.	.	.	16B 16bb	.	.	.	.	.	.	.
8E'	8G#X'	8d'	8f'	.	16A 16aa	.	.	.	8r	.	.	.
.	.	.	.	.	16c 16ccc	.	.	.	.	.	.	.
8E'J	8G#'J	8d'J	8f'J	.	16B 16bb	.	8r	.	8r	8r	8r	8r
.	.	.	.	.	16AJJ 16aa	.	.	.	.	.	.	.
8E'L	8G#'L	8e-X'^L	8g'^L	.	8r	.	16r	.	8e-X'L 8gn	16e-X'LL 16g	8r	8r
.	.	.	.	.	.	.	(16cLL	f	.	(16cc	.	.
8E'J	8G#'J	8c'J	8e-X'J	.	8r	.	16B	.	(16ccL 16ccc	16b	(16cccLL	(16ccccLL
.	.	.	.	.	.	.	16AJJ)	.	16bnJJ 16bbn	16aJJ)	16bbJJ	16bbbJJ
=7	=7	=7	=7	=7	=7	=7	=7	=7	=7	=7	=7	=7
!!pagebreak:original
*M3/4	*M3/4	*M3/4	*M3/4	*M3/4	*M3/4	*M3/4	*M3/4	*	*M3/4	*M3/4	*M3/4	*M3/4
8D'^L	8F#X'^L	8c'L	8e-X'L	2.r	4r	8D' 8F#X	8D' 8F#X	.	8a) 8aa	2.r	8aa)	8aaa)
8D'J	8F#'J	8c'J	8e-'J	.	.	8r	8r	.	8r	.	8r	8r
8D'L	8F#'L	8c'L	8e-'L	.	16fLL 16fff	4r	8r	.	4r	.	4r	4r
.	.	.	.	.	16e-X 16eee-X	.	.	.	.	.	.	.
8E'^J	8G#X'^J	8c'J	8e-'J	.	16d-X 16ddd-X	.	8E' 8G#X	.	.	.	.	.
.	.	.	.	.	16cJJ 16ccc	.	.	.	.	.	.	.
8D'L	8F#'L	8c'L	8e-'L	.	16B-XLL 16bb-X	4r	8r	.	8r	.	4r	4r
.	.	.	.	.	16A 16aa	.	.	.	.	.	.	.
8D'J	8F#'J	8d-X'^J	8f'^J	.	16G 16gg	.	8c#X 8fn	.	8d-X' 8f	.	.	.
.	.	.	.	.	16e-JJ 16ee-X 16eee-	.	.	.	.	.	.	.
=8	=8	=8	=8	=8	=8	=8	=8	=8	=8	=8	=8	=8
8D'L	8F#X'L	8B-X'L	8d-X'L	2.r	16d-XLL 16ddd-X	8r	8r	.	4r	2.r	2.r	2.r
.	.	.	.	.	16c 16ccc	.	.	.	.	.	.	.
8C'^J	8E'^J	8B-'J	8d-'J	.	16B-X 16bb-X	8C' 8E	8Cn' 8E	.	.	.	.	.
.	.	.	.	.	16AJJ 16aa	.	.	.	.	.	.	.
8C'L	8E'L	8B-'L	8d-'L	.	16GLL 16gg	4r	8r	.	4r	.	.	.
.	.	.	.	.	16d-X 16dd-X 16ddd-X	.	.	.	.	.	.	.
8D'^J	8Fn'^J	8B-'J	8d-'J	.	16c 16ccc	.	8D' 8Fn	.	.	.	.	.
.	.	.	.	.	16B-JJ 16bb-	.	.	.	.	.	.	.
8C'L	8E'L	8B-'L	8d-'L	.	16ALL 16aa	4r	8r	.	8r	.	.	.
.	.	.	.	.	16G 16gg	.	.	.	.	.	.	.
8C'J	8E'J	8c-X'^J	8e-X'^J	.	16c 16cc 16ccc	.	8B' 8d#X	.	8c-X' 8e-X	.	.	.
.	.	.	.	.	16B-JJ 16bb-	.	.	.	.	.	.	.
=9	=9	=9	=9	=9	=9	=9	=9	=9	=9	=9	=9	=9
8C'L	8E'L	8A-X'L	8c-X'L	2.r	16ALL 16aa	8r	8r	.	4r	4r	4r	4r
.	.	.	.	.	16G 16gg	.	.	.	.	.	.	.
*	*	*	*	*	*	*clefF4	*	*	*	*	*	*
8BB-X'^J	8D'^J	8A-'J	8c-'J	.	16B-X 16b-X 16bb-X	8BBB-X' 8DD	8BB-X' 8D	.	.	.	.	.
.	.	.	.	.	16AJJ 16aa	.	.	.	.	.	.	.
8BB-'L	8D'L	8A-'L	8c-'L	.	16G 16gg	4r	8r	.	4r	4r	4r	4r
.	.	.	.	.	16r	.	.	.	.	.	.	.
8C'^J	8E'^J	8A-'J	8c-'J	.	8r	.	8C' 8E	.	.	.	.	.
8BB-'L	8D'L	8A-'L	8c-'L	.	4r	4r	4r	.	(16b-XLL 16bb-X	(16b-XLL	(16bb-XLL	(16bbb-XLL
.	.	.	.	.	.	.	.	.	16aJ 16aa	16aJ	16aaJ	16aaaJ
8BB-'J	8D'J	8A-'J	8c-'J	.	.	.	.	.	8gJ) 8gg	8gJ)	8ggJ)	8gggJ)
==	==	==	==	==	==	==	==	==	==	==	==	==
*-	*-	*-	*-	*-	*-	*-	*-	*-	*-	*-	*-	*-
!!!system-decoration: [(s1,s2,s3,s4,s5)]s6{(s7,s8)}[(s9,s10,s11,s12)]
!!!ONB: Converted from MusicXML on 2019/06/05
